X:1
T:[ID 1-129a]
T:[ID 1-129a]
T:Bezeichnung standardisiert: Naber Johan; Naber Johan
T:Urheber unbekannt Datum in der hier transkribierten schriftlichen Quelle: vermutlich vor 1767
C:Urheber unbekannt
C:Datum in der hier transkribierten schriftlichen Quelle: vermutlich vor 1767
L:1/8
M:2/4
K:D
V:1 treble 
V:1
 A | defd | gg/a/ f2 | e/f/e/d/ c2 | d/e/f/d/ eg/a/ | gf/d/ d2 :: e | fgaf | f2 ba | g2 f2 | %10
 e/f/e/d/ cA | A/B/c/d/ eA | A/B/c/d/ eg | f/e/d/c/ d2 :| %14

